X: 1
T:Maguinnis' Delight -- Reel
M:C|
L:1/8
R:reel
B:Ryan's Mammoth Collection
N:324
Z:Contributed by Ray Davies,  ray:davies99.freeserve.co.uk
K:F
vcB"^Segno"|\
|:AFcF dFcF | AFcF B2u((3dcB) | AFcF dFcF | BGGA B2u((3dcB) :|
|:vf2u(a/g/f/e/) fcAc | f2(a/g/f/e/) fgag | f2(a/g/f/e/) fcAc |\
 BGGA B2(Bc) "^Segno":|
